brandFactory_export/2.Regular/Power_2Regular.svg

<?xml version="1.0" encoding="UTF-8"?>
<svg width="24px" height="24px" viewBox="0 0 24 24" version="1.1" xmlns="http://www.w3.org/2000/svg" xmlns:xlink="http://www.w3.org/1999/xlink">
    <title>2.Regular/Power_2Regular</title>
    <g id="Symbols" stroke="none" stroke-width="1" fill="none" fill-rule="evenodd">
        <g id="2.Regular/Power_2Regular" fill="#5CB615" fill-rule="nonzero">
            <path d="M11.8386555,0.0268907563 C15.5932773,0.0268907563 18.5142857,1.00840336 20.5243697,2.94117647 C22.6084034,4.9512605 23.6638655,7.94621849 23.6638655,11.8521008 C23.6638655,15.7546218 22.6084034,18.7529412 20.5243697,20.7596639 C18.5142857,22.692437 15.5932773,23.6705882 11.8386555,23.6705882 C8.08403361,23.6705882 5.16302521,22.6890756 3.15630252,20.7563025 C1.07563025,18.7495798 0.0201680674,15.7546218 0.0201680674,11.8487395 C0.0201680674,7.94621849 1.07563025,4.94789916 3.15630252,2.93781513 C5.16302521,1.00840336 8.08403361,0.0268907563 11.8386555,0.0268907563 Z M11.8386555,1.33445378 C4.86386555,1.33445378 1.32773109,4.87394958 1.32773109,11.8521008 C1.32773109,18.8268908 4.86386555,22.3630252 11.8386555,22.3630252 C18.8168067,22.3630252 22.3563025,18.8268908 22.3563025,11.8521008 C22.3529412,4.87394958 18.8168067,1.33445378 11.8386555,1.33445378 Z M13.8722689,4.73277311 C15.5932773,5.0487395 16.9243697,5.81176471 17.8352941,7.00168067 C18.7596639,8.21176471 19.2268908,9.84537815 19.2268908,11.8621849 C19.2268908,14.2554622 18.5714286,16.1042017 17.2773109,17.3478992 C16.0336134,18.5546218 14.2352941,19.1630252 11.9327731,19.1630252 C9.6302521,19.1630252 7.83193277,18.5546218 6.58823529,17.3546218 C5.29747899,16.1109244 4.64201681,14.2621849 4.64201681,11.8689076 C4.64201681,9.8789916 5.09579832,8.26218487 5.99327731,7.05882353 C6.87731092,5.87226891 8.17815126,5.09915966 9.85546218,4.76638655 C10.2184874,4.69243697 10.5747899,4.93109244 10.6453782,5.29411765 C10.7193277,5.65714286 10.4806723,6.01344538 10.1176471,6.08403361 C7.33445378,6.63865546 5.98319328,8.53109244 5.98319328,11.8689076 C5.98319328,13.8857143 6.50084034,15.405042 7.51932773,16.3865546 C8.50420168,17.3344538 9.98991597,17.8151261 11.9327731,17.8151261 C13.8756303,17.8151261 15.3613445,17.3344538 16.3462185,16.3831933 C17.3647059,15.4016807 17.8823529,13.8823529 17.8823529,11.8655462 C17.8823529,8.48067227 16.4907563,6.58151261 13.6302521,6.05714286 C13.2638655,5.98991597 13.0218487,5.64033613 13.0890756,5.27394958 C13.1563025,4.90756303 13.5058824,4.66554622 13.8722689,4.73277311 Z M11.8991597,2.63865546 C12.2689076,2.63865546 12.5714286,2.94117647 12.5714286,3.31092437 L12.5714286,8.22857143 C12.5714286,8.59831933 12.2689076,8.90084034 11.8991597,8.90084034 C11.5294118,8.90084034 11.2268908,8.59831933 11.2268908,8.22857143 L11.2268908,3.31092437 C11.2268908,2.94117647 11.5294118,2.63865546 11.8991597,2.63865546 Z" id="Power_2Regular"></path>
        </g>
    </g>
</svg>

<svg width="24" height="24" viewBox="0 0 24 24" xmlns="http://www.w3.org/2000/svg"><path d="M11.839.027c3.754 0 6.675.981 8.685 2.914 2.084 2.01 3.14 5.005 3.14 8.911 0 3.903-1.056 6.9-3.14 8.908-2.01 1.932-4.93 2.91-8.685 2.91-3.755 0-6.676-.98-8.683-2.914C1.076 18.75.02 15.755.02 11.85c0-3.903 1.056-6.901 3.136-8.911C5.163 1.008 8.084.027 11.84.027zm0 1.307c-6.975 0-10.511 3.54-10.511 10.518 0 6.975 3.536 10.511 10.51 10.511 6.979 0 10.518-3.536 10.518-10.51-.003-6.98-3.54-10.519-10.517-10.519zm2.033 3.399c1.721.316 3.052 1.079 3.963 2.269.925 1.21 1.392 2.843 1.392 4.86 0 2.393-.656 4.242-1.95 5.486-1.243 1.207-3.042 1.815-5.344 1.815-2.303 0-4.101-.608-5.345-1.808-1.29-1.244-1.946-3.093-1.946-5.486 0-1.99.454-3.607 1.351-4.81.884-1.187 2.185-1.96 3.862-2.293a.67.67 0 11.263 1.318c-2.784.555-4.135 2.447-4.135 5.785 0 2.017.518 3.536 1.536 4.518.985.947 2.47 1.428 4.414 1.428 1.943 0 3.428-.48 4.413-1.432 1.019-.981 1.536-2.5 1.536-4.517 0-3.385-1.391-5.284-4.252-5.809a.672.672 0 11.242-1.324zM11.9 2.639c.37 0 .672.302.672.672v4.918c0 .37-.302.672-.672.672a.674.674 0 01-.672-.672V3.31c0-.37.302-.672.672-.672z" fill="#5CB615" fill-rule="nonzero"/></svg>
